X: 5
T: The Five Mile Chase
R: reel
M: 4/4
L: 1/8
K: Gmaj
|: G2BG dGBG|FADA FADA|G2BG dGBd|egfa gedB |
G2BG dGBG|FADA FADA|G2BG dGBd|egfa g2 gf:|
|:gdBd edBd|gabg agef|gdBd edBd|egfa g3f|
gabg efge|dedc BGBd|efed edBd|egfa gedB:|


Tune 458	Setting 27692

